mimes/24/application-x-ms-dos-executable.svg

<?xml version="1.0" encoding="UTF-8" standalone="no"?>
<svg
   xmlns:dc="http://purl.org/dc/elements/1.1/"
   xmlns:cc="http://creativecommons.org/ns#"
   xmlns:rdf="http://www.w3.org/1999/02/22-rdf-syntax-ns#"
   xmlns:svg="http://www.w3.org/2000/svg"
   xmlns="http://www.w3.org/2000/svg"
   xmlns:xlink="http://www.w3.org/1999/xlink"
   version="1.1"
   width="24"
   height="24"
   id="svg3350">
  <defs
     id="defs3352">
    <linearGradient
       x1="26.313066"
       y1="9.8269262"
       x2="26.313066"
       y2="23.605091"
       id="linearGradient3264"
       xlink:href="#linearGradient4260-8"
       gradientUnits="userSpaceOnUse"
       gradientTransform="matrix(0.40155078,0,0,0.40454336,6.0413842,13.28669)" />
    <linearGradient
       id="linearGradient4260-8">
      <stop
         id="stop4262-1"
         style="stop-color:#000000;stop-opacity:1"
         offset="0" />
      <stop
         id="stop4264-8"
         style="stop-color:#000000;stop-opacity:0"
         offset="1" />
    </linearGradient>
    <linearGradient
       x1="26.313066"
       y1="9.8269262"
       x2="26.313066"
       y2="23.605091"
       id="linearGradient3267"
       xlink:href="#linearGradient4260-6"
       gradientUnits="userSpaceOnUse"
       gradientTransform="matrix(0.39820022,0,0,0.40454334,2.2440927,17.139011)" />
    <linearGradient
       id="linearGradient4260-6">
      <stop
         id="stop4262-7"
         style="stop-color:#000000;stop-opacity:1"
         offset="0" />
      <stop
         id="stop4264-90"
         style="stop-color:#000000;stop-opacity:0"
         offset="1" />
    </linearGradient>
    <linearGradient
       x1="26.313066"
       y1="9.8269262"
       x2="26.313066"
       y2="23.605091"
       id="linearGradient3270"
       xlink:href="#linearGradient4260-7"
       gradientUnits="userSpaceOnUse"
       gradientTransform="matrix(0.38479802,0,0,0.40112101,-1.2415975,13.321846)" />
    <linearGradient
       id="linearGradient4260-7">
      <stop
         id="stop4262-3"
         style="stop-color:#000000;stop-opacity:1"
         offset="0" />
      <stop
         id="stop4264-9"
         style="stop-color:#000000;stop-opacity:0"
         offset="1" />
    </linearGradient>
    <linearGradient
       x1="26.313066"
       y1="9.8269262"
       x2="26.313066"
       y2="23.605091"
       id="linearGradient3273"
       xlink:href="#linearGradient4260"
       gradientUnits="userSpaceOnUse"
       gradientTransform="matrix(0.38479802,0,0,0.39125692,2.6160038,9.6092848)" />
    <linearGradient
       id="linearGradient4260">
      <stop
         id="stop4262"
         style="stop-color:#000000;stop-opacity:1"
         offset="0" />
      <stop
         id="stop4264"
         style="stop-color:#000000;stop-opacity:0"
         offset="1" />
    </linearGradient>
    <linearGradient
       x1="44.228275"
       y1="18.456329"
       x2="16.354654"
       y2="-9.4172926"
       id="linearGradient3276"
       xlink:href="#linearGradient3707-319-631-407-324-616-6-7"
       gradientUnits="userSpaceOnUse"
       gradientTransform="matrix(0.34136191,0.34460271,-0.34136191,0.34460271,0.17365928,7.992426)" />
    <linearGradient
       id="linearGradient3707-319-631-407-324-616-6-7">
      <stop
         id="stop3246-7-4"
         style="stop-color:#505050;stop-opacity:1"
         offset="0" />
      <stop
         id="stop3248-3-8"
         style="stop-color:#8e8e8e;stop-opacity:1"
         offset="1" />
    </linearGradient>
    <linearGradient
       x1="23.99999"
       y1="4.999989"
       x2="23.99999"
       y2="43"
       id="linearGradient3302-281"
       xlink:href="#linearGradient3924-742"
       gradientUnits="userSpaceOnUse"
       gradientTransform="matrix(0.45945947,0,0,0.45945947,0.9742203,8.9717327)" />
    <linearGradient
       id="linearGradient3924-742">
      <stop
         id="stop3115"
         style="stop-color:#ffffff;stop-opacity:1"
         offset="0" />
      <stop
         id="stop3117"
         style="stop-color:#ffffff;stop-opacity:0.23529412"
         offset="0.06316455" />
      <stop
         id="stop3119"
         style="stop-color:#ffffff;stop-opacity:0.15686275"
         offset="0.95056331" />
      <stop
         id="stop3121"
         style="stop-color:#ffffff;stop-opacity:0.39215687"
         offset="1" />
    </linearGradient>
    <radialGradient
       cx="7.4956832"
       cy="8.4497671"
       r="19.99999"
       fx="7.4956832"
       fy="8.4497671"
       id="radialGradient3295-435"
       xlink:href="#linearGradient2867-449-88-871-390-598-476-591-434-148-57-177-912"
       gradientUnits="userSpaceOnUse"
       gradientTransform="matrix(0,1.1385337,-1.2044328,-2.0976135e-8,22.177231,2.2497106)" />
    <linearGradient
       id="linearGradient2867-449-88-871-390-598-476-591-434-148-57-177-912">
      <stop
         id="stop3099"
         style="stop-color:#c7c7c7;stop-opacity:1"
         offset="0" />
      <stop
         id="stop3101"
         style="stop-color:#a6a6a6;stop-opacity:1"
         offset="0.26238" />
      <stop
         id="stop3103"
         style="stop-color:#7b7b7b;stop-opacity:1"
         offset="0.704952" />
      <stop
         id="stop3105"
         style="stop-color:#595959;stop-opacity:1"
         offset="1" />
    </linearGradient>
    <linearGradient
       x1="24"
       y1="44"
       x2="24"
       y2="3.8990016"
       id="linearGradient3297-146"
       xlink:href="#linearGradient3707-319-631-407-324-921"
       gradientUnits="userSpaceOnUse"
       gradientTransform="matrix(0.48717951,0,0,0.48717951,0.30769188,8.3076896)" />
    <linearGradient
       id="linearGradient3707-319-631-407-324-921">
      <stop
         id="stop3109"
         style="stop-color:#505050;stop-opacity:1"
         offset="0" />
      <stop
         id="stop3111"
         style="stop-color:#8e8e8e;stop-opacity:1"
         offset="1" />
    </linearGradient>
    <radialGradient
       cx="4.9929786"
       cy="43.5"
       r="2.5"
       fx="4.9929786"
       fy="43.5"
       id="radialGradient3082-993"
       xlink:href="#linearGradient3688-166-749-49"
       gradientUnits="userSpaceOnUse"
       gradientTransform="matrix(2.003784,0,0,1.4,27.98813,-17.4)" />
    <linearGradient
       id="linearGradient3688-166-749-49">
      <stop
         id="stop3079"
         style="stop-color:#181818;stop-opacity:1"
         offset="0" />
      <stop
         id="stop3081"
         style="stop-color:#181818;stop-opacity:0"
         offset="1" />
    </linearGradient>
    <radialGradient
       cx="4.9929786"
       cy="43.5"
       r="2.5"
       fx="4.9929786"
       fy="43.5"
       id="radialGradient3084-992"
       xlink:href="#linearGradient3688-464-309-276"
       gradientUnits="userSpaceOnUse"
       gradientTransform="matrix(2.003784,0,0,1.4,-20.01187,-104.4)" />
    <linearGradient
       id="linearGradient3688-464-309-276">
      <stop
         id="stop3085"
         style="stop-color:#181818;stop-opacity:1"
         offset="0" />
      <stop
         id="stop3087"
         style="stop-color:#181818;stop-opacity:0"
         offset="1" />
    </linearGradient>
    <linearGradient
       x1="25.058096"
       y1="47.027729"
       x2="25.058096"
       y2="39.999443"
       id="linearGradient3086-631"
       xlink:href="#linearGradient3702-501-757-979"
       gradientUnits="userSpaceOnUse" />
    <linearGradient
       id="linearGradient3702-501-757-979">
      <stop
         id="stop3091"
         style="stop-color:#181818;stop-opacity:0"
         offset="0" />
      <stop
         id="stop3093"
         style="stop-color:#181818;stop-opacity:1"
         offset="0.5" />
      <stop
         id="stop3095"
         style="stop-color:#181818;stop-opacity:0"
         offset="1" />
    </linearGradient>
  </defs>
  <metadata
     id="metadata3355">
    <rdf:RDF>
      <cc:Work
         rdf:about="">
        <dc:format>image/svg+xml</dc:format>
        <dc:type
           rdf:resource="http://purl.org/dc/dcmitype/StillImage" />
        <dc:title />
      </cc:Work>
    </rdf:RDF>
  </metadata>
  <g
     transform="translate(0,-8)"
     id="layer1">
    <g
       transform="matrix(0.55,0,0,0.3333336,-1.2000011,15.33331)"
       id="g2036"
       style="display:inline">
      <g
         transform="matrix(1.052632,0,0,1.285713,-1.263158,-13.42854)"
         id="g3712"
         style="opacity:0.4">
        <rect
           width="5"
           height="7"
           x="38"
           y="40"
           id="rect2801"
           style="fill:url(#radialGradient3082-993);fill-opacity:1;stroke:none" />
        <rect
           width="5"
           height="7"
           x="-10"
           y="-47"
           transform="scale(-1,-1)"
           id="rect3696"
           style="fill:url(#radialGradient3084-992);fill-opacity:1;stroke:none" />
        <rect
           width="28"
           height="7.0000005"
           x="10"
           y="40"
           id="rect3700"
           style="fill:url(#linearGradient3086-631);fill-opacity:1;stroke:none" />
      </g>
    </g>
    <rect
       width="19.000002"
       height="19.000002"
       rx="1"
       ry="1"
       x="2.5"
       y="10.499998"
       id="rect5505-21"
       style="color:#000000;fill:url(#radialGradient3295-435);fill-opacity:1;fill-rule:nonzero;stroke:url(#linearGradient3297-146);stroke-width:1;stroke-linecap:round;stroke-linejoin:round;stroke-miterlimit:4;stroke-opacity:1;stroke-dasharray:none;stroke-dashoffset:0;marker:none;visibility:visible;display:inline;overflow:visible;enable-background:accumulate" />
    <rect
       width="17"
       height="17"
       x="3.5012455"
       y="11.498756"
       id="rect6741-9"
       style="opacity:0.5;fill:none;stroke:url(#linearGradient3302-281);stroke-width:0.99999988;stroke-linecap:round;stroke-linejoin:round;stroke-miterlimit:4;stroke-opacity:1;stroke-dasharray:none;stroke-dashoffset:0" />
    <path
       d="M 12.000002,21.664557 15.137933,24.832278 12.000002,28 8.86207,24.832279 z M 8.1379312,17.765823 11.275863,20.933544 8.1379312,24.101268 4.9999998,20.933545 z M 15.86207,17.898734 19,21.000002 15.86207,24.101269 12.724138,21.000003 z M 12.000001,14 15.13793,17.101268 12.000001,20.202535 8.862069,17.101269 z"
       id="rect4120-5-3"
       style="opacity:0.4;color:#000000;fill:#ffffff;fill-opacity:1;fill-rule:nonzero;stroke:none;stroke-width:1.70000005;marker:none;visibility:visible;display:inline;overflow:visible;enable-background:accumulate" />
    <path
       d="m 12.001246,20.663313 3.137932,3.167722 -3.137932,3.167722 -3.1379302,-3.167722 z M 8.1391769,16.764579 11.277108,19.932301 8.1391769,23.100022 5.0012455,19.932301 z m 7.7241381,0.132911 3.13793,3.101267 -3.13793,3.101268 -3.137932,-3.101266 z m -3.862069,-3.898734 3.13793,3.101268 -3.13793,3.101267 -3.1379311,-3.101266 z"
       id="rect4120-5"
       style="color:#000000;fill:url(#linearGradient3276);fill-opacity:1;fill-rule:nonzero;stroke:none;stroke-width:1.70000005;marker:none;visibility:visible;display:inline;overflow:visible;enable-background:accumulate" />
    <path
       d="m 12.043555,13.628561 2.501186,2.489819 -2.501186,2.489817 -2.5011868,-2.489816 z"
       id="rect4120-5-5"
       style="opacity:0.1;color:#000000;fill:none;stroke:url(#linearGradient3273);stroke-width:0.99999988;stroke-miterlimit:4;stroke-opacity:1;stroke-dasharray:none;marker:none;visibility:visible;display:inline;overflow:visible;enable-background:accumulate" />
    <path
       d="M 8.1859534,17.442453 10.68714,19.995043 8.1859534,22.547632 5.6847667,19.995044 z"
       id="rect4120-5-5-1"
       style="opacity:0.1;color:#000000;fill:none;stroke:url(#linearGradient3270);stroke-width:0.99999982;stroke-miterlimit:4;stroke-opacity:1;stroke-dasharray:none;marker:none;visibility:visible;display:inline;overflow:visible;enable-background:accumulate" />
    <path
       d="m 11.999998,21.294775 2.5883,2.574368 -2.5883,2.574367 -2.5883013,-2.574366 z"
       id="rect4120-5-5-9"
       style="opacity:0.1;color:#000000;fill:none;stroke:url(#linearGradient3267);stroke-width:0.99999988;stroke-miterlimit:4;stroke-opacity:1;stroke-dasharray:none;marker:none;visibility:visible;display:inline;overflow:visible;enable-background:accumulate" />
    <path
       d="m 15.879377,17.442453 2.61008,2.574369 -2.61008,2.574368 -2.610079,-2.574367 z"
       id="rect4120-5-5-2"
       style="opacity:0.1;color:#000000;fill:none;stroke:url(#linearGradient3264);stroke-width:0.99999988;stroke-miterlimit:4;stroke-opacity:1;stroke-dasharray:none;marker:none;visibility:visible;display:inline;overflow:visible;enable-background:accumulate" />
  </g>
</svg>

<svg xmlns="http://www.w3.org/2000/svg" xmlns:xlink="http://www.w3.org/1999/xlink" viewBox="0 0 24 24"><defs><linearGradient x1="26.313" y1="9.827" x2="26.313" y2="23.605" id="v" xlink:href="#a" gradientUnits="userSpaceOnUse" gradientTransform="matrix(.40155 0 0 .40454 6.04 13.287)"/><linearGradient id="a"><stop offset="0"/><stop offset="1" stop-opacity="0"/></linearGradient><linearGradient x1="26.313" y1="9.827" x2="26.313" y2="23.605" id="u" xlink:href="#b" gradientUnits="userSpaceOnUse" gradientTransform="matrix(.3982 0 0 .40454 2.244 17.14)"/><linearGradient id="b"><stop offset="0"/><stop offset="1" stop-opacity="0"/></linearGradient><linearGradient x1="26.313" y1="9.827" x2="26.313" y2="23.605" id="t" xlink:href="#c" gradientUnits="userSpaceOnUse" gradientTransform="matrix(.3848 0 0 .40112 -1.242 13.322)"/><linearGradient id="c"><stop offset="0"/><stop offset="1" stop-opacity="0"/></linearGradient><linearGradient x1="26.313" y1="9.827" x2="26.313" y2="23.605" id="s" xlink:href="#d" gradientUnits="userSpaceOnUse" gradientTransform="matrix(.3848 0 0 .39126 2.616 9.61)"/><linearGradient id="d"><stop offset="0"/><stop offset="1" stop-opacity="0"/></linearGradient><linearGradient x1="44.228" y1="18.456" x2="16.355" y2="-9.417" id="r" xlink:href="#e" gradientUnits="userSpaceOnUse" gradientTransform="scale(.48276 .48734) rotate(45 -19.617 8.634)"/><linearGradient id="e"><stop offset="0" stop-color="#505050"/><stop offset="1" stop-color="#8e8e8e"/></linearGradient><linearGradient x1="24" y1="5" x2="24" y2="43" id="q" xlink:href="#f" gradientUnits="userSpaceOnUse" gradientTransform="translate(.974 8.972) scale(.45946)"/><linearGradient id="f"><stop offset="0" stop-color="#fff"/><stop offset=".063" stop-color="#fff" stop-opacity=".235"/><stop offset=".951" stop-color="#fff" stop-opacity=".157"/><stop offset="1" stop-color="#fff" stop-opacity=".392"/></linearGradient><radialGradient cx="7.496" cy="8.45" r="20" fx="7.496" fy="8.45" id="o" xlink:href="#g" gradientUnits="userSpaceOnUse" gradientTransform="matrix(0 1.13853 -1.20443 0 22.177 2.25)"/><linearGradient id="g"><stop offset="0" stop-color="#c7c7c7"/><stop offset=".262" stop-color="#a6a6a6"/><stop offset=".705" stop-color="#7b7b7b"/><stop offset="1" stop-color="#595959"/></linearGradient><linearGradient x1="24" y1="44" x2="24" y2="3.899" id="p" xlink:href="#h" gradientUnits="userSpaceOnUse" gradientTransform="translate(.308 8.308) scale(.48718)"/><linearGradient id="h"><stop offset="0" stop-color="#505050"/><stop offset="1" stop-color="#8e8e8e"/></linearGradient><radialGradient cx="4.993" cy="43.5" r="2.5" fx="4.993" fy="43.5" id="l" xlink:href="#i" gradientUnits="userSpaceOnUse" gradientTransform="matrix(2.00378 0 0 1.4 27.988 -17.4)"/><linearGradient id="i"><stop offset="0" stop-color="#181818"/><stop offset="1" stop-color="#181818" stop-opacity="0"/></linearGradient><radialGradient cx="4.993" cy="43.5" r="2.5" fx="4.993" fy="43.5" id="m" xlink:href="#j" gradientUnits="userSpaceOnUse" gradientTransform="matrix(2.00378 0 0 1.4 -20.012 -104.4)"/><linearGradient id="j"><stop offset="0" stop-color="#181818"/><stop offset="1" stop-color="#181818" stop-opacity="0"/></linearGradient><linearGradient x1="25.058" y1="47.028" x2="25.058" y2="39.999" id="n" xlink:href="#k" gradientUnits="userSpaceOnUse"/><linearGradient id="k"><stop offset="0" stop-color="#181818" stop-opacity="0"/><stop offset=".5" stop-color="#181818"/><stop offset="1" stop-color="#181818" stop-opacity="0"/></linearGradient></defs><g transform="translate(0 -8)"><g opacity=".4"><path fill="url(#l)" d="M38 40h5v7h-5z" transform="matrix(.57895 0 0 .42857 -1.895 10.857)"/><path transform="matrix(-.57895 0 0 -.42857 -1.895 10.857)" fill="url(#m)" d="M-10-47h5v7h-5z"/><path fill="url(#n)" d="M10 40h28v7H10z" transform="matrix(.57895 0 0 .42857 -1.895 10.857)"/></g><rect width="19" height="19" rx="1" ry="1" x="2.5" y="10.5" color="#000" fill="url(#o)" stroke="url(#p)" stroke-linecap="round" stroke-linejoin="round" overflow="visible"/><path opacity=".5" fill="none" stroke="url(#q)" stroke-linecap="round" stroke-linejoin="round" d="M3.5 11.5h17v17h-17z"/><path d="M12 21.665l3.138 3.167L12 28l-3.138-3.168zm-3.862-3.9l3.138 3.17L8.138 24.1 5 20.935zm7.724.134L19 21l-3.138 3.1-3.138-3.1zM12 14l3.138 3.1L12 20.204 8.862 17.1z" opacity=".4" color="#000" fill="#fff" overflow="visible"/><path d="M12 20.663l3.14 3.168L12 27l-3.137-3.17zm-3.86-3.898l3.137 3.167L8.14 23.1 5 19.932zm7.723.132L19 20l-3.137 3.1-3.138-3.1zM12 13l3.14 3.1L12 19.2l-3.137-3.1z" color="#000" fill="url(#r)" overflow="visible"/><path d="M12.044 13.63l2.5 2.488-2.5 2.49-2.502-2.49z" opacity=".1" color="#000" fill="none" stroke="url(#s)" overflow="visible"/><path d="M8.186 17.442l2.5 2.553-2.5 2.553-2.5-2.553z" opacity=".1" color="#000" fill="none" stroke="url(#t)" overflow="visible"/><path d="M12 21.295l2.588 2.574L12 26.44l-2.588-2.57z" opacity=".1" color="#000" fill="none" stroke="url(#u)" overflow="visible"/><path d="M15.88 17.442l2.61 2.575-2.61 2.574-2.61-2.57z" opacity=".1" color="#000" fill="none" stroke="url(#v)" overflow="visible"/></g></svg>
